X:1
T:Miséricorde [1]
M:2/4
L:1/16
R:Polka
S:Quebecois Immersion Weekend 2012 (Sabin Jacques)
Z:AK/Fiddler's Companion
K:D
AABc dcde|f2a2 f3d|e2g2 e3c|d2f2 d3d|
AABc dcde|f2a2 f3d|e2g2 e3c|1 dfaf d4:|2 dfaf d3A||
|:A2c2 [c3e3]A|A2d2 [d3f3]A|A2c2 [c2e2]fe|dedc {Bc}B2 A>A|
A2c2 [c3e3]A|A2d2 [d3f3]d|c2ba gece|dfaf d3A:|]

